src/assets/duotone/SmsEdit.svg

<svg width="24" height="24" viewBox="0 0 24 24"  xmlns="http://www.w3.org/2000/svg">
<path opacity="0.4" d="M7 3H17C20 3 22 4.5 22 8V11.14C22 11.87 21.25 12.33 20.58 12.04C19.48 11.56 18.23 11.38 16.92 11.59C14.3 12.02 12.16 14.09 11.63 16.69C11.48 17.45 11.46 18.19 11.56 18.9C11.64 19.49 11.16 20.01 10.57 20.01H7C4 20.01 2 18.51 2 15.01V8.01001C2 4.50001 4 3 7 3Z" />
<path d="M11.9998 11.87C11.1598 11.87 10.3098 11.61 9.65978 11.08L6.52978 8.57996C6.20978 8.31996 6.14978 7.84997 6.40978 7.52997C6.66978 7.20997 7.13977 7.14997 7.45977 7.40997L10.5898 9.90997C11.3498 10.52 12.6398 10.52 13.3998 9.90997L16.5298 7.40997C16.8498 7.14997 17.3298 7.19997 17.5798 7.52997C17.8398 7.84997 17.7898 8.32996 17.4598 8.57996L14.3298 11.08C13.6898 11.61 12.8398 11.87 11.9998 11.87Z" />
<path d="M18 13C15.24 13 13 15.23 13 18C13 20.76 15.24 23 18 23C20.77 23 23 20.76 23 18C23 15.23 20.77 13 18 13ZM20.05 17.55L19.68 17.91L17.51 20.09C17.41 20.18 17.22 20.28 17.08 20.3L16.1 20.44C15.75 20.49 15.5 20.24 15.55 19.89L15.69 18.91C15.71 18.77 15.8 18.58 15.9 18.48L18.08 16.31L18.44 15.94C18.68 15.7 18.95 15.54 19.23 15.54C19.47 15.54 19.74 15.65 20.04 15.94C20.7 16.6 20.49 17.11 20.05 17.55Z" />
</svg>

<?xml version="1.0" encoding="UTF-8"?>
<svg width="24" height="24" viewBox="0 0 24 24" xmlns="http://www.w3.org/2000/svg">
 <path d="m7 3h10c3 0 5 1.5 5 5v3.14c0 0.73-0.75 1.19-1.42 0.9-1.1-0.48-2.35-0.66-3.66-0.45-2.62 0.43-4.76 2.5-5.29 5.1-0.15 0.76-0.17 1.5-0.07 2.21 0.08 0.59-0.4 1.11-0.99 1.11h-3.57c-3 0-5-1.5-5-5v-7c0-3.51 2-5.01 5-5.01z" opacity=".4"/>
 <path d="m12 11.87c-0.84 0-1.69-0.26-2.34-0.79l-3.13-2.5c-0.32-0.26-0.38-0.72999-0.12-1.05s0.72999-0.38 1.05-0.12l3.13 2.5c0.76 0.61003 2.05 0.61003 2.81 0l3.13-2.5c0.32-0.26 0.8-0.21 1.05 0.12 0.26 0.32 0.21 0.79999-0.12 1.05l-3.13 2.5c-0.64 0.53-1.49 0.79-2.33 0.79z"/>
 <path d="m18 13c-2.76 0-5 2.23-5 5 0 2.76 2.24 5 5 5 2.77 0 5-2.24 5-5 0-2.77-2.23-5-5-5zm2.05 4.55-0.37 0.36-2.17 2.18c-0.1 0.09-0.29 0.19-0.43 0.21l-0.98 0.14c-0.35 0.05-0.6-0.2-0.55-0.55l0.14-0.98c0.02-0.14 0.11-0.33 0.21-0.43l2.18-2.17 0.36-0.37c0.24-0.24 0.51-0.4 0.79-0.4 0.24 0 0.51 0.11 0.81 0.4 0.66 0.66 0.45 1.17 0.01 1.61z"/>
</svg>
